X:1
T:Whoop, do me no harm, good man
L:1/8
M:3/4
S:Chappell - Popular Music of the Olden Times  (1859)
Z:AK/Fiddler's Companion
K:D
D2|F3G A2|A3G A2|B3A G2|G3F E2|F3G A2|
A4 ^G2|(A6|A4)||D2|F3G A2|A3B =c2|
B3A G2|E6|d6|D3E E2|E3D E2|D6||

